dist/assets/img/models/sale.svg

<svg width="51" height="13" viewBox="0 0 51 13" fill="none" xmlns="http://www.w3.org/2000/svg">
<path d="M2.87659 8.80252H0.441534C0.430854 9.5071 0.559015 10.1156 0.826016 10.628C1.09302 11.1404 1.4508 11.5621 1.89936 11.893C2.35861 12.224 2.88193 12.4642 3.46933 12.6136C4.06742 12.7738 4.68152 12.8538 5.31164 12.8538C6.09129 12.8538 6.77481 12.7631 7.36221 12.5816C7.9603 12.4001 8.45692 12.1492 8.85208 11.829C9.25793 11.498 9.56231 11.1084 9.76523 10.66C9.96815 10.2117 10.0696 9.72594 10.0696 9.20285C10.0696 8.56233 9.93077 8.03924 9.65309 7.63357C9.38609 7.21723 9.06568 6.8863 8.69188 6.64077C8.31808 6.39523 7.93894 6.21909 7.55446 6.11234C7.18065 5.99491 6.88695 5.91484 6.67335 5.87214C5.95779 5.69066 5.37572 5.5412 4.92716 5.42378C4.48928 5.30635 4.14218 5.18892 3.88585 5.07149C3.64021 4.95406 3.47467 4.82596 3.38923 4.68718C3.30379 4.5484 3.26107 4.36692 3.26107 4.14273C3.26107 3.8972 3.31447 3.69437 3.42127 3.53424C3.52807 3.37411 3.66157 3.24067 3.82177 3.13391C3.99265 3.02716 4.17956 2.95243 4.38248 2.90973C4.5854 2.86703 4.78832 2.84568 4.99124 2.84568C5.30096 2.84568 5.58398 2.87237 5.84031 2.92574C6.10731 2.97912 6.34227 3.06986 6.54519 3.19796C6.74811 3.32607 6.90831 3.50221 7.02579 3.72639C7.15395 3.95058 7.22871 4.23347 7.25007 4.57508H9.68513C9.68513 3.91321 9.55697 3.35276 9.30064 2.89372C9.055 2.424 8.71858 2.03969 8.29138 1.74078C7.86418 1.44187 7.37289 1.22836 6.81753 1.10026C6.27285 0.961479 5.70146 0.89209 5.10338 0.89209C4.59074 0.89209 4.0781 0.961479 3.56545 1.10026C3.05281 1.23904 2.59357 1.45255 2.18772 1.74078C1.78188 2.02901 1.4508 2.39198 1.19448 2.82967C0.948837 3.25668 0.826016 3.76376 0.826016 4.3509C0.826016 4.87399 0.922137 5.32236 1.11438 5.696C1.3173 6.05896 1.57896 6.36321 1.89936 6.60874C2.21976 6.85427 2.58289 7.0571 2.98873 7.21723C3.39457 7.36669 3.81109 7.49479 4.2383 7.60155C4.65482 7.71898 5.066 7.82573 5.47184 7.92181C5.87769 8.01789 6.24081 8.12998 6.56121 8.25808C6.88161 8.38619 7.13793 8.54631 7.33017 8.73847C7.5331 8.93063 7.63456 9.1815 7.63456 9.49108C7.63456 9.77932 7.5598 10.0195 7.41027 10.2117C7.26075 10.3932 7.07385 10.5373 6.84957 10.644C6.62529 10.7508 6.38499 10.8255 6.12867 10.8682C5.87235 10.9002 5.63204 10.9162 5.40776 10.9162C5.07668 10.9162 4.75628 10.8789 4.44656 10.8042C4.13684 10.7187 3.86449 10.596 3.62953 10.4359C3.40525 10.265 3.22369 10.0462 3.08485 9.77932C2.94601 9.51243 2.87659 9.18684 2.87659 8.80252Z" fill="white"/>
<path d="M17.6537 8.17802L19.1436 3.9826H19.1757L20.6175 8.17802H17.6537ZM17.894 1.16431L13.5686 12.5976H16.0998L16.9969 10.0515H21.2743L22.1394 12.5976H24.7506L20.4733 1.16431H17.894Z" fill="white"/>
<path d="M28.941 1.16431V12.5976H37.0312V10.4839H31.4562V1.16431H28.941Z" fill="white"/>
<path d="M41.6413 1.16431V12.5976H50.3242V10.4839H44.1565V7.68161H49.6994V5.72802H44.1565V3.27803H50.1961V1.16431H41.6413Z" fill="white"/>
</svg>

<svg width="51" height="13" viewBox="0 0 51 13" fill="none" xmlns="http://www.w3.org/2000/svg"><path d="M2.877 8.803H.442c-.011.704.117 1.313.384 1.825s.625.934 1.073 1.265c.46.331.983.571 1.57.72a7.09 7.09 0 001.843.24c.78 0 1.463-.09 2.05-.271.598-.182 1.095-.433 1.49-.753.406-.331.71-.72.913-1.169a3.49 3.49 0 00.305-1.457c0-.64-.14-1.164-.417-1.57a3.29 3.29 0 00-.961-.992 4.043 4.043 0 00-1.138-.529 9.095 9.095 0 00-.88-.24 201.99 201.99 0 01-1.747-.448 6.84 6.84 0 01-1.041-.353c-.246-.117-.411-.245-.497-.384-.085-.139-.128-.32-.128-.544 0-.246.053-.449.16-.609.107-.16.24-.293.4-.4.172-.107.359-.182.561-.224.203-.043.406-.064.61-.064.309 0 .592.026.848.08.267.053.502.144.705.272.203.128.363.304.48.528.129.225.204.507.225.85h2.435c0-.663-.128-1.223-.384-1.682A3.188 3.188 0 008.29 1.74a4.18 4.18 0 00-1.473-.64A6.917 6.917 0 005.103.891c-.512 0-1.025.07-1.538.208a4.295 4.295 0 00-1.377.64 3.468 3.468 0 00-.994 1.09c-.245.427-.368.934-.368 1.52 0 .524.096.972.288 1.346.203.363.465.667.785.913.32.245.684.448 1.09.608.406.15.822.278 1.25.385.416.117.827.224 1.233.32a7.79 7.79 0 011.09.336c.32.128.576.288.768.48a.992.992 0 01.305.753c0 .288-.075.529-.225.72-.15.182-.336.326-.56.433a2.7 2.7 0 01-.721.224 5.837 5.837 0 01-.721.048c-.331 0-.652-.037-.961-.112a2.728 2.728 0 01-.817-.368 1.933 1.933 0 01-.545-.657c-.139-.267-.208-.592-.208-.976zm14.777-.625l1.49-4.195h.032l1.442 4.195h-2.964zm.24-7.014l-4.325 11.434h2.53l.898-2.546h4.277l.865 2.546h2.612L20.473 1.164h-2.579zm11.047 0v11.434h8.09v-2.114h-5.575v-9.32h-2.515zm12.7 0v11.434h8.683v-2.114h-6.167V7.682h5.542V5.728h-5.542v-2.45h6.04V1.164H41.64z" fill="#fff"/></svg>
